X: 1
T: String Quartet in E\b major opus 1 no 2 mvt 2
C: Franz Joseph Haydn
%%abc-version 2.0
%%abcx-abcm2ps-target-version 5.9.1 (29 Sep 2008)
%%abc-creator hum2abc beta
%%abcx-conversion-date 2021/02/14 14:38:15
%%abc-copyright Copyright (c) 1994, 2000 Center for Computer Assisted Research in the Humanities
%%abc-edited-by Frances Bennion
%%abcx-initial-encoding-date 1997/04/15
%%gracespace 0 6 6
%%humdrum-veritas 4173115202
%%humdrum-veritas-data 1888440081
%%linebreak <none>
%%barnumbers 0
L: 1/4
M: 3/4
N: Derived from op01n2-02.krn
Q: "Menuetto I"
%%staves [1 2 3 4]
V: 1
V: 2
V: 3 clef=alto
V: 4 clef=bass
K: Eb
[V:1]B e g [I:setbarnb2] |
[V:2]z G E |
[V:3]z3 |
[V:4]z3 |
[V:1]g a/>g/ f3//e// |
[V:2]F2 A |
[V:3]z3 |
[V:4]z3 |
[V:1]d f b |
[V:2]B2 D |
[V:3]z3 |
[V:4]z3 |
[V:1]a g/>f/ e3//d// |
[V:2]E2 G |
[V:3]z3 |
[V:4]z3 |
[V:1]c c' c' |
[V:2]A G F |
[V:3]z3 |
[V:4]z3 |
[V:1]d2 e/d//c// |
[V:2]B A G |
[V:3]z3 |
[V:4]z3 |
[V:1]B (3a/f/a/ g |
[V:2]F2 G |
[V:3]B3 |
[V:4]D,2 E, |
[V:1]B (3a/f/a/ g |
[V:2]F2 G |
[V:3]B3 |
[V:4]D,2 E, |
[V:1]b a/>g/ f3//e// |
[V:2]E c/>B/ A3//G// |
[V:3]G A A |
[V:4]G, A, A, |
[V:1]d2 z |
[V:2]F2 z |
[V:3]B F B, |
[V:4]B, F, B,, |
[V:1]z3 |
[V:2]F B d |
[V:3]z d B |
[V:4]z D B, |
[V:1]z3 |
[V:2]d e/>d/ c3//B// |
[V:3]c C z |
[V:4]C C, z |
[V:1]c' c' c' |
[V:2]=A A A |
[V:3]F F F |
[V:4]F, F, F, |
[V:1]c' d'/>c'/ b3//=a// |
[V:2]=A B/>A/ G3//F// |
[V:3]B B, z |
[V:4]B, B,, z |
[V:1]g g (3b/=a/g/ |
[V:2]E E (3G/F/E/ |
[V:3]B B B |
[V:4]B, B, B, |
[V:1]g/f <f b/ |
[V:2]E/D <D B,/ |
[V:3]B,2 D |
[V:4]B,,2 D, |
[V:1]g/f//e// d c |
[V:2]E/D//C// B, =A, |
[V:3]E F F, |
[V:4]E, F, F,, |
[V:1]B2 z |
[V:2]B,2 z |
[V:3]B, B A |
[V:4]B,, B, A, |
[V:1]z3 |
[V:2]B, B, B, |
[V:3]E E E/G/ |
[V:4]G, G,, G,, |
[V:1]z3 |
[V:2]C C C |
[V:3]G/F/ F2 |
[V:4]A,, A,, A,, |
[V:1]z3 |
[V:2]G G G/B/ |
[V:3]E E E |
[V:4]B,, B,, B,, |
[V:1]z3 |
[V:2]B/A/ A2 |
[V:3]E E E |
[V:4]C, C, C, |
[V:1]a a a/b/ |
[V:2]f f f/g/ |
[V:3]D D B, |
[V:4]D, D, B,, |
[V:1]a/g/ g (3c'/b/a/ |
[V:2]f/e/ e E |
[V:3]E2 A |
[V:4]E,2 A, |
[V:1]g e' (3f/g/a/ |
[V:2]E2 B |
[V:3]G2 D |
[V:4]G,2 D, |
[V:1]a/g/ f/e/ d/c/ |
[V:2]B2 z |
[V:3]E2 z |
[V:4]E,2 z |
[V:1]B G F |
[V:2]G E D |
[V:3]E B B, |
[V:4]E, B, B,, |
[V:1]E2 z |
[V:2]E2 z |
[V:3]E B, E, |
[V:4]E, B,, E,, |
[V:1][B2D2] b |
[V:2]B/B/ B/B/ B/B/ |
[V:3]B,2 d |
[V:4]B,,2 D |
[V:1]g f e |
[V:2]B/B/ B/B/ B/B/ |
[V:3]e d c |
[V:4]E D C |
[V:1]d >e e3//d/8e/8 |
[V:2]B/B/ B/B/ B/B/ |
[V:3]B B, C |
[V:4]B, B,, C, |
[V:1]f =a/<b/ a//b3// |
[V:2]B/B/ B/B/ B/B/ |
[V:3]D z2 |
[V:4]D, z2 |
[V:1][B2D2] b |
[V:2]B/B/ B/B/ B/B/ |
[V:3]B,2 d |
[V:4]B,,2 D |
[V:1]g f e |
[V:2]B/B/ B/B/ B/B/ |
[V:3]e d c |
[V:4]E D C |
[V:1]d >e e3//d/8e/8 |
[V:2]B/B/ B/B/ B/B/ |
[V:3]B B, C |
[V:4]B, B,, C, |
[V:1]f z b |
[V:2]B/B/ B/B/ B/B/ |
[V:3]D z D |
[V:4]D, z D, |
[V:1]^f/g <g =a/ |
[V:2]B/B/ B/B/ B/B/ |
[V:3]E z e |
[V:4]E, z E |
[V:1]b/f/ d'/=a/ b/f/ |
[V:2]B/B/ B/B/ B/B/ |
[V:3]d z F |
[V:4]D z D, |
[V:1]e d c |
[V:2]B/B/ B/B/ =A/A/ |
[V:3]G F F, |
[V:4]E, F, F,, |
[V:1]B2 z |
[V:2]B2 z |
[V:3]B, D [B,F] |
[V:4]B,, D, [B,,F,] |
[V:1][=A,2F2] f |
[V:2][=A,2F2] =A |
[V:3]F/F/ F/F/ F/F/ |
[V:4]F,,2 z |
[V:1]d c B |
[V:2]B =A G |
[V:3]F/F/ F/F/ F/F/ |
[V:4]z3 |
[V:1]=A >B B3//A/8B/8 |
[V:2]F >G G3//F/8G/8 |
[V:3]F/F/ F/F/ F/F/ |
[V:4]z3 |
[V:1]c =e/<f/ e//f3// |
[V:2]=A z2 |
[V:3]F/F/ F/F/ F/F/ |
[V:4]z3 |
[V:1]F2 (3c/d/e/ |
[V:2]=A,2 (3=A/B/c/ |
[V:3]F/F/ F/F/ F/F/ |
[V:4]F,,2 z |
[V:1]D2 (3d/e/f/ |
[V:2]B,2 (3B/c/d/ |
[V:3]F/F/ F/F/ F/F/ |
[V:4]F,,2 z |
[V:1]f (3b/=a/g/ (3f/e/d/ |
[V:2]d z (3d/c/B/ |
[V:3]F/F/ F/F/ F/F/ |
[V:4]z3 |
[V:1]c z2 |
[V:2]=A z2 |
[V:3]F/F/ F/E/ D/C/ |
[V:4]z F,/E,/ D,/C,/ |
[V:1][B2D2] b |
[V:2]B/B/ B/B/ B/B/ |
[V:3]B, z d |
[V:4]B,,2 D |
[V:1]g f e |
[V:2]B/B/ B/B/ B/B/ |
[V:3]e d c |
[V:4]E D C |
[V:1]d >e e3//d/8e/8 |
[V:2]B/B/ B/B/ B/B/ |
[V:3]B B, C |
[V:4]B, B,, C, |
[V:1]f =a/<b/ a//b3// |
[V:2]B/B/ B/B/ B/B/ |
[V:3]D z2 |
[V:4]D, z2 |
[V:1][B2D2] a |
[V:2]B/B/ B/B/ B/B/ |
[V:3]B, C D |
[V:4]B,, C, D, |
[V:1]a/g/ g2 |
[V:2]B/B/ B/B/ B/B/ |
[V:3]E z2 |
[V:4]E, z2 |
[V:1]^f/g <g =a/ |
[V:2]B/B/ B/B/ B/B/ |
[V:3]e e e |
[V:4]E E E |
[V:1]b/f/ d'/=a/ b/f/ |
[V:2]B/B/ B/B/ B/B/ |
[V:3]d z F |
[V:4]D z D, |
[V:1]e d c |
[V:2]B/B/ B/B/ =A/A/ |
[V:3]G F F, |
[V:4]E, F, F,, |
[V:1]B2 z |]
[V:2]B2 z |]
[V:3]B, D B, |]
[V:4]B,, D, B,, |]

